assets/rubygems/mono.svg

<svg viewBox="0 0 24 24" xmlns="http://www.w3.org/2000/svg"><path d="m7.81 7.9-2.97 2.95 7.19 7.18 2.96-2.95 4.22-4.23-2.96-2.96v-.01h-8.45zm4.19-7.9-10.47 6v12l10.47 6 10.47-6v-12zm8.47 16.85-8.47 4.88-8.47-4.88v-9.73l8.47-4.88 8.47 4.88z"/></svg>

<svg xmlns="http://www.w3.org/2000/svg" viewBox="0 0 24 24"><path d="m7.81 7.9-2.97 2.95 7.19 7.18 2.96-2.95 4.22-4.23-2.96-2.96v-.01H7.8zM12 0 1.53 6v12L12 24l10.47-6V6zm8.47 16.85L12 21.73l-8.47-4.88V7.12L12 2.24l8.47 4.88z"/></svg>
